X:1
T: Miss Petra Fries of Paderborn
C:
R:Strathspey
Q: 128
K:D
M:4/4
L:1/16
|:B3c dB3 G3A BG3|c3d ec3 A3G ((3F2E2D2) |E3F GE3 D3F G4|c3d ec3 A4 d4|
((3B2c2e2) b3g af3 d4|e3f ge3 dB3 G4|E3F GE3 D3F G4|Ac3 B3A BG3 G4|
b3a g3b af3 d4|g3f eg3 fd3 B4|e3d ce3 d3c BG3|EA3 c3B A4 d4|
b3d ((3b2a2g2) a3f ((3d2e2f2) |((3g2e2g2) ((3f2g2f2) ((3e2c2e2) ((3d2B2G2) |E3A ce3 d3c BG3|Ac3 B3A BG3 G4:|
